X: 11841
T: OH! ON O CHRI O!
O: Gaelic air.
Q: "Very slow."
%R: air, waltz
B: W. Hamilton "Universal Tune-Book" Vol. 1 Glasgow 1844 p.184 #1
S: http://imslp.org/wiki/Hamilton's_Universal_Tune-Book_(Various)
Z: 2016 John Chambers <jc:trillian.mit.edu>
M: 3/4
L: 1/8
K: G
%%slurgraces yes
%%graceslurs yes
% - - - - - - - - - - - - - - - - - - - - - - - - -
(D>E) |\
G4(GA) | B4(GA) | B4D2 | {D2}E4(D>E) |\
G2G2g2 | {f2}e4 (3(deg) | (ed)(cB)(AG) | {Bc}d4(D>E) |\
G4(GA) | B4(GA) |
B4D2 | {D2}E4g2 |\
e3d(Be) | d3B(Ad) | B3A({c}BA/G/) | G4 :|\
|: (ga) | {ga}b4(ag) | {f2}e4(d/f/g/a/) | b3a(gb) |\
(b2a2)(ge) |
(ed)(cB) (e/f/g) | {g2}f4(ef/g/) | (ed)(cB)(AG) |\
{Bc}d4(D>E) | G4(ge) | d3(cB)A | G3(ABd) | e4(de/g/) |\
e3d(Be) | d3B(Ad) | B3A(BA/G/) | G4 :|
% - - - - - - - - - - - - - - - - - - - - - - - - -

%%sep 1 1 500
%%sep 1 1 500

